Papirus-Light/22x22/animations/nm-vpn-connecting11.svg

<?xml version="1.0" encoding="UTF-8" standalone="no"?>
<svg xmlns="http://www.w3.org/2000/svg" version="1.1" width="22" height="22">
 <defs>
  <linearGradient y2="5" x2="19" gradientTransform="matrix(-0.97437,0.22495,0.22495,0.97437,19.993,-3.3916)" y1="12" gradientUnits="userSpaceOnUse" x1="7" id="linearGradient3605">
   <stop offset="0" stop-opacity=".5" stop-color="#5c616c"/>
   <stop offset="1" stop-opacity="0" stop-color="#5c616c"/>
  </linearGradient>
  <linearGradient y2="12" x2="17" gradientTransform="matrix(0.97437,-0.22495,-0.22495,-0.97437,2.0076,25.392)" y1="12" gradientUnits="userSpaceOnUse" x1="7" id="linearGradient3611">
   <stop offset="0" stop-color="#5c616c"/>
   <stop offset="1" stop-color="#5c616c" stop-opacity=".5"/>
  </linearGradient>
 </defs>
 <path d="M 17.820312 9.4257812 L 15.873047 9.875 C 15.960779 10.254944 15.978087 10.630782 15.970703 11.003906 C 15.980749 11.003804 15.98993 11 16 11 C 16.752003 11 17.427602 11.295298 17.951172 11.761719 C 18.035908 11.000734 18.002854 10.214581 17.820312 9.4257812 z M 5.3066406 11.376953 C 4.6900406 11.310953 3.9968875 11.783219 4.1796875 12.574219 C 5.0048796 16.148968 8.4335397 18.435777 12 17.917969 L 12 15.894531 C 9.3517462 16.436113 6.7404859 14.774325 6.1289062 12.125 C 6.0192062 11.65 5.6766406 11.416953 5.3066406 11.376953 z" style="fill:url(#linearGradient3611)"/>
 <path d="M 10.832031 4 C 10.367031 4.0117 9.8966813 4.0709875 9.4257812 4.1796875 C 5.6585812 5.0492875 3.3099875 8.8073187 4.1796875 12.574219 L 6.1289062 12.125 C 5.5077063 9.4344 7.1844 6.7501063 9.875 6.1289062 C 12.566 5.5077063 15.252047 7.1844 15.873047 9.875 L 17.820312 9.4257812 C 17.059313 6.1292813 14.087031 3.9184 10.832031 4 z" style="fill:url(#linearGradient3605)"/>
 <path d="m16 12c-1.108 0-2 .91085-2 2.0312v.96875h-1v4h6v-4h-1v-.96875c0-1.12-.892-2.031-2-2.031zm0 1c.554 0 1 .4424 1 1v1h-2v-1c0-.5576.446-1 1-1z" fill="#5c616c"/>
</svg>

<?xml version="1.0" encoding="UTF-8" standalone="no"?>
<svg width="22" xmlns="http://www.w3.org/2000/svg" version="1.1" height="22">
 <defs>
  <linearGradient id="linearGradient3605" y2="5" gradientUnits="userSpaceOnUse" y1="12" gradientTransform="matrix(-.97437 .22495 .22495 .97437 19.993 -3.3916)" x2="19" x1="7">
   <stop stop-opacity=".5" stop-color="#5c616c" offset="0"/>
   <stop stop-opacity="0" stop-color="#5c616c" offset="1"/>
  </linearGradient>
  <linearGradient id="linearGradient3611" y2="12" gradientUnits="userSpaceOnUse" y1="12" gradientTransform="matrix(.97437 -.22495 -.22495 -.97437 2.0076 25.392)" x2="17" x1="7">
   <stop stop-color="#5c616c" offset="0"/>
   <stop stop-color="#5c616c" stop-opacity=".5" offset="1"/>
  </linearGradient>
 </defs>
 <path style="fill:url(#linearGradient3611)" d="m17.82 9.4258l-1.947 0.4492c0.088 0.38 0.105 0.756 0.098 1.129 0.01 0 0.019-0.004 0.029-0.004 0.752 0 1.428 0.295 1.951 0.762 0.085-0.761 0.052-1.547-0.131-2.3362zm-12.513 1.9512c-0.6166-0.066-1.3097 0.406-1.1269 1.197 0.8252 3.575 4.2538 5.862 7.8203 5.344v-2.023c-2.6483 0.541-5.2595-1.121-5.8711-3.77-0.1097-0.475-0.4523-0.708-0.8223-0.748z"/>
 <path style="fill:url(#linearGradient3605)" d="m10.832 4c-0.465 0.0117-0.9353 0.071-1.4062 0.1797-3.7672 0.8696-6.1158 4.6276-5.2461 8.3943l1.9492-0.449c-0.6212-2.6906 1.0555-5.3749 3.7461-5.9961 2.691-0.6212 5.377 1.0555 5.998 3.7461l1.947-0.4492c-0.761-3.2965-3.733-5.5074-6.988-5.4258z"/>
 <path d="m16 12c-1.108 0-2 0.91085-2 2.0312v0.96875h-1v4h6v-4h-1v-0.96875c0-1.12-0.892-2.031-2-2.031zm0 1c0.554 0 1 0.4424 1 1v1h-2v-1c0-0.5576 0.446-1 1-1z" fill="#5c616c"/>
</svg>
